X:4067
T:Matines (J.-M. Veillon) - An Dro/Rond St. Vincent
O:england
C:E. Grandjean / Strobinell
M:4/4
L:1/8
K:C
e2 ef d3e|c2 cA BcBA|e2 ef d2 de|c2 cA B4:|\
|:A2 cBA2cd|e2ec cf (3efe|A2cBA2cd|eABcA4:|


